resources/haticons/SVG/money.svg

<!-- Generated by IcoMoon.io -->
<svg version="1.1" xmlns="http://www.w3.org/2000/svg" width="24" height="24" viewBox="0 0 24 24">
<title>money</title>
<path d="M3.984 18h16.031v-12h-16.031v12zM2.016 3.984h19.969v16.031h-19.969v-16.031zM17.016 14.016v-4.031h-1.031v4.031h1.031zM18 8.016q0.422 0 0.703 0.281t0.281 0.703v6q0 0.422-0.281 0.703t-0.703 0.281h-3q-0.422 0-0.703-0.281t-0.281-0.703v-6q0-0.422 0.281-0.703t0.703-0.281h3zM11.016 14.016v-4.031h-1.031v4.031h1.031zM12 8.016q0.422 0 0.703 0.281t0.281 0.703v6q0 0.422-0.281 0.703t-0.703 0.281h-3q-0.422 0-0.703-0.281t-0.281-0.703v-6q0-0.422 0.281-0.703t0.703-0.281h3zM5.016 8.016h1.969v7.969h-1.969v-7.969z"></path>
</svg>

<svg xmlns="http://www.w3.org/2000/svg" width="24" height="24"><path d="M3.984 18h16.031V6H3.984v12zM2.016 3.984h19.969v16.031H2.016V3.984zm15 10.032V9.985h-1.031v4.031h1.031zm.984-6q.422 0 .703.281t.281.703v6q0 .422-.281.703t-.703.281h-3q-.422 0-.703-.281T14.016 15V9q0-.422.281-.703T15 8.016h3zm-6.984 6V9.985H9.985v4.031h1.031zm.984-6q.422 0 .703.281t.281.703v6q0 .422-.281.703t-.703.281H9q-.422 0-.703-.281T8.016 15V9q0-.422.281-.703T9 8.016h3zm-6.984 0h1.969v7.969H5.016V8.016z"/></svg>
